static/icons/carousel-arrow-left.svg

<svg width="90" height="90" viewBox="0 0 90 90" fill="none" xmlns="http://www.w3.org/2000/svg">
<g filter="url(#filter0_d)">
<path d="M41.5992 75.633C60.3955 75.633 75.6329 60.3956 75.6329 41.5993C75.6329 22.8031 60.3955 7.56567 41.5992 7.56567C22.8029 7.56567 7.56555 22.8031 7.56555 41.5993C7.56555 60.3956 22.8029 75.633 41.5992 75.633Z" fill="#EBECE9"/>
<path d="M41.5993 7.56567C31.1346 7.56567 21.2356 12.4209 14.7777 20.67C28.2592 7.61281 49.8013 7.94278 62.8585 21.4714C74.6902 33.6801 75.6801 52.7239 65.2154 66.1111C78.744 53.101 79.1683 31.5589 66.111 18.0303C59.7003 11.2896 50.8383 7.56567 41.5993 7.56567Z" fill="#C1C1C1"/>
<path d="M41.5993 76.1986C22.5084 76.1986 7 60.6902 7 41.5993C7 22.5084 22.5084 7 41.5993 7C60.6902 7 76.1986 22.5084 76.1986 41.5993C76.1986 60.6902 60.6902 76.1986 41.5993 76.1986ZM41.5993 8.13131C23.1212 8.13131 8.13131 23.1212 8.13131 41.5993C8.13131 60.0774 23.1212 75.0673 41.5993 75.0673C60.0774 75.0673 75.0673 60.0774 75.0673 41.5993C75.0673 23.1212 60.0774 8.13131 41.5993 8.13131Z" fill="#244583"/>
<path d="M29.9561 69.2693C29.8618 69.2693 29.7204 69.2693 29.6261 69.2222C28.4948 68.7037 27.3635 68.138 26.2793 67.4781C25.9022 67.2424 25.808 66.771 26.0437 66.3939C26.2793 66.0639 26.7507 65.9225 27.0807 66.1111C28.1177 66.7239 29.1548 67.2895 30.2389 67.7609C30.616 67.9494 30.8046 68.4208 30.6632 68.7979C30.5689 69.0808 30.2861 69.2693 29.9561 69.2693Z" fill="white"/>
<path d="M24.0639 65.7812C23.8753 65.7812 23.7339 65.734 23.5925 65.6398C19.3501 62.4344 16.0504 58.0977 14.0706 53.1953C13.9292 52.7711 14.1178 52.3468 14.4949 52.1583C14.9191 52.0169 15.3434 52.2054 15.5319 52.5825C17.4174 57.2492 20.5285 61.3031 24.5824 64.367C24.9124 64.6499 25.0067 65.1212 24.7238 65.4512C24.5353 65.6869 24.2996 65.7812 24.0639 65.7812Z" fill="white"/>
<path d="M58.5992 45.3048V38.6776C58.5992 37.5842 57.7046 36.6895 56.6111 36.6895H43.0476V25.589C43.0476 23.8163 40.9103 22.9382 39.6511 24.1808L23.249 40.5829C22.4703 41.3616 22.4703 42.6208 23.249 43.3995L39.6511 59.8016C40.9103 61.0608 43.0476 60.1661 43.0476 58.3934V47.2929H56.6111C57.7046 47.2929 58.5992 46.3983 58.5992 45.3048Z" fill="#9FEFDE"/>
<path d="M23.8383 41.3945C23.39 41.8428 23.4639 42.5892 23.9914 42.9409C24.3861 43.204 24.911 43.1553 25.2505 42.824L41.8125 26.6603C42.248 26.2353 42.2752 25.544 41.8745 25.086C41.4381 24.5873 40.6709 24.5618 40.2023 25.0304L23.8383 41.3945Z" fill="#24C4A1"/>
<path d="M43.0476 37.2895H42.4475V36.6895V25.589C42.4475 24.3582 40.9603 23.7338 40.0739 24.6065C40.0735 24.607 40.073 24.6074 40.0726 24.6078L23.6732 41.0072C23.1289 41.5516 23.1289 42.4308 23.6732 42.9752L40.0754 59.3774C40.9541 60.2561 42.4475 59.6351 42.4475 58.3934V47.2929V46.6929H43.0476H56.6111C57.3732 46.6929 57.9992 46.0669 57.9992 45.3048V38.6776C57.9992 37.9155 57.3732 37.2895 56.6111 37.2895H43.0476Z" stroke="#244583" stroke-width="1.2"/>
</g>
<defs>
<filter id="filter0_d" x="0" y="0" width="89.1986" height="89.1986" filterUnits="userSpaceOnUse" color-interpolation-filters="sRGB">
<feFlood flood-opacity="0" result="BackgroundImageFix"/>
<feColorMatrix in="SourceAlpha" type="matrix" values="0 0 0 0 0 0 0 0 0 0 0 0 0 0 0 0 0 0 127 0"/>
<feOffset dx="3" dy="3"/>
<feGaussianBlur stdDeviation="5"/>
<feColorMatrix type="matrix" values="0 0 0 0 0 0 0 0 0 0 0 0 0 0 0 0 0 0 0.15 0"/>
<feBlend mode="normal" in2="BackgroundImageFix" result="effect1_dropShadow"/>
<feBlend mode="normal" in="SourceGraphic" in2="effect1_dropShadow" result="shape"/>
</filter>
</defs>
</svg>

<svg xmlns="http://www.w3.org/2000/svg" width="90" height="90" fill="none" xmlns:v="https://vecta.io/nano"><g filter="url(#A)"><path d="M41.599 75.633c18.796 0 34.034-15.237 34.034-34.034S60.396 7.566 41.599 7.566 7.566 22.803 7.566 41.599s15.237 34.034 34.034 34.034z" fill="#ebece9"/><path d="M41.599 7.566c-10.465 0-20.364 4.855-26.822 13.104 13.482-13.057 35.024-12.727 48.081.801C74.69 33.68 75.68 52.724 65.215 66.111c13.529-13.01 13.953-34.552.896-48.081C59.7 11.29 50.838 7.566 41.599 7.566z" fill="#c1c1c1"/><path d="M41.599 76.199C22.508 76.199 7 60.69 7 41.599S22.508 7 41.599 7s34.599 15.508 34.599 34.599S60.69 76.199 41.599 76.199zm0-68.067c-18.478 0-33.468 14.99-33.468 33.468s14.99 33.468 33.468 33.468 33.468-14.99 33.468-33.468S60.077 8.131 41.599 8.131z" fill="#244583"/><path d="M29.956 69.269c-.094 0-.236 0-.33-.047-1.131-.519-2.263-1.084-3.347-1.744-.377-.236-.471-.707-.236-1.084.236-.33.707-.471 1.037-.283 1.037.613 2.074 1.178 3.158 1.65.377.188.566.66.424 1.037-.094.283-.377.471-.707.471z" fill="#fff"/><path d="M24.064 65.781c-.189 0-.33-.047-.471-.141a29.47 29.47 0 0 1-9.522-12.444.84.84 0 0 1 .424-1.037.84.84 0 0 1 1.037.424c1.886 4.667 4.997 8.721 9.051 11.785.33.283.424.754.141 1.084-.189.236-.424.33-.66.33z" fill="#fff"/><path d="M58.599 45.305v-6.627c0-1.093-.895-1.988-1.988-1.988H43.048V25.589c0-1.773-2.137-2.651-3.397-1.408L23.249 40.583a1.99 1.99 0 0 0 0 2.817l16.402 16.402c1.259 1.259 3.397.364 3.397-1.408v-11.1h13.563c1.093 0 1.988-.895 1.988-1.988z" fill="#9fefde"/><path d="M23.838 41.395c-.448.448-.374 1.195.153 1.546.395.263.92.214 1.259-.117L41.813 26.66c.435-.425.463-1.116.062-1.574-.436-.499-1.204-.524-1.672-.056L23.838 41.395z" fill="#24c4a1"/><path d="M43.048 37.29h-.6v-.6-11.101c0-1.231-1.487-1.855-2.374-.982L23.673 41.007a1.39 1.39 0 0 0 0 1.968l16.402 16.402a1.39 1.39 0 0 0 2.372-.984v-11.1-.6h.6 13.563c.762 0 1.388-.626 1.388-1.388v-6.627c0-.762-.626-1.388-1.388-1.388H43.048z" stroke="#244583" stroke-width="1.2"/></g><defs><filter id="A" x="0" y="0" width="89.199" height="89.199" filterUnits="userSpaceOnUse" color-interpolation-filters="sRGB"><feFlood flood-opacity="0" result="A"/><feColorMatrix in="SourceAlpha" values="0 0 0 0 0 0 0 0 0 0 0 0 0 0 0 0 0 0 127 0"/><feOffset dx="3" dy="3"/><feGaussianBlur stdDeviation="5"/><feColorMatrix values="0 0 0 0 0 0 0 0 0 0 0 0 0 0 0 0 0 0 0.15 0"/><feBlend in2="A"/><feBlend in="SourceGraphic"/></filter></defs></svg>
